X: 54
M:2/4
L:1/16
K:G
uD2|\
vef|\
(ge)be (ge)be | (fe)^df eBef | (ge)be (ge)be | (fe)^df eBef |
(ge)be (ge)be | (fe)^df eBef | (ge)be (ge)be | (fe)^df e2  |]


